X:387
T:Whiskey Before Breakfast
C:Trad arr. P J Headford
R:hp 32 reel
M:4/4
L:1/8
Q:2/4=90
P:A2
K:D
P:A
|:A,B,DE D2DE|F2AB ADFA|G2BG F2AF|EDEF EDB,2|
A,B,DE D2DE|F2AB ADFA|G2BG F2AF|EDEF D2z2:|]

